lib/flags/mt-malta.svg

<svg xmlns="http://www.w3.org/2000/svg" fill="none" aria-hidden="true" viewBox="0 0 42 30"><g id="Country=MT - Malta, Size=sm (36x24)" filter="url(#filter0_dd_91_26313)"><g clip-path="url(#clip0_91_26313)"><g id="flag"><rect id="mask" width="36" height="24" x="3" y="2" fill="#F7FCFF"/><mask id="mask0_91_26313" width="36" height="24" x="3" y="2" maskUnits="userSpaceOnUse" style="mask-type:alpha"><rect id="mask_2" width="36" height="24" x="3" y="2" fill="white"/></mask><g mask="url(#mask0_91_26313)"><g id="Combined Shape"><mask id="path-4-inside-1_91_26313" fill="white"><path fill-rule="evenodd" d="M14.25 6H9.75V8.99254C9.25436 9.09705 8.88565 9.49303 8.88565 9.96556C8.88565 9.97709 8.88587 9.98857 8.88631 10H5.25V14H8.99709C9.1424 14.2674 9.41767 14.4685 9.75 14.5386V18H14.25V14.5514C14.6141 14.4966 14.9186 14.2863 15.0742 14H18.75V10H15.185C15.1854 9.98857 15.1856 9.97709 15.1856 9.96556C15.1856 9.47064 14.7811 9.0597 14.25 8.97967V6Z" clip-rule="evenodd"/></mask><path fill="#A0A0A0" fill-rule="evenodd" d="M14.25 6H9.75V8.99254C9.25436 9.09705 8.88565 9.49303 8.88565 9.96556C8.88565 9.97709 8.88587 9.98857 8.88631 10H5.25V14H8.99709C9.1424 14.2674 9.41767 14.4685 9.75 14.5386V18H14.25V14.5514C14.6141 14.4966 14.9186 14.2863 15.0742 14H18.75V10H15.185C15.1854 9.98857 15.1856 9.97709 15.1856 9.96556C15.1856 9.47064 14.7811 9.0597 14.25 8.97967V6Z" clip-rule="evenodd"/><path fill="#FECA00" d="M9.75 6V5H8.75V6H9.75ZM14.25 6H15.25V5H14.25V6ZM9.75 8.99254L9.95633 9.97102L10.75 9.80366V8.99254H9.75ZM8.88631 10V11H9.92511L9.88558 9.96195L8.88631 10ZM5.25 10V9H4.25V10H5.25ZM5.25 14H4.25V15H5.25V14ZM8.99709 14L9.8757 13.5225L9.59174 13H8.99709V14ZM9.75 14.5386H10.75V13.7274L9.95633 13.5601L9.75 14.5386ZM9.75 18H8.75V19H9.75V18ZM14.25 18V19H15.25V18H14.25ZM14.25 14.5514L14.101 13.5626L13.25 13.6908V14.5514H14.25ZM15.0742 14V13H14.4795L14.1956 13.5225L15.0742 14ZM18.75 14V15H19.75V14H18.75ZM18.75 10H19.75V9H18.75V10ZM15.185 10L14.1857 9.96199L14.1462 11H15.185V10ZM14.25 8.97967H13.25V9.84028L14.101 9.96851L14.25 8.97967ZM9.75 7H14.25V5H9.75V7ZM10.75 8.99254V6H8.75V8.99254H10.75ZM9.88565 9.96556C9.88565 9.97901 9.88277 9.99211 9.87879 10.002C9.87511 10.0111 9.87228 10.0133 9.875 10.0103C9.88162 10.0029 9.90692 9.98144 9.95633 9.97102L9.54367 8.01405C8.67504 8.19722 7.88565 8.93435 7.88565 9.96556H9.88565ZM9.88558 9.96195C9.88563 9.96319 9.88565 9.9644 9.88565 9.96556H7.88565C7.88565 9.98978 7.88611 10.0139 7.88703 10.0381L9.88558 9.96195ZM5.25 11H8.88631V9H5.25V11ZM6.25 14V10H4.25V14H6.25ZM8.99709 13H5.25V15H8.99709V13ZM9.95633 13.5601C9.9242 13.5533 9.90129 13.5415 9.8874 13.5315C9.87325 13.5213 9.87213 13.5159 9.8757 13.5225L8.11847 14.4775C8.41523 15.0235 8.9492 15.3917 9.54367 15.517L9.95633 13.5601ZM10.75 18V14.5386H8.75V18H10.75ZM14.25 17H9.75V19H14.25V17ZM13.25 14.5514V18H15.25V14.5514H13.25ZM14.399 15.5403C15.0466 15.4427 15.6353 15.0618 15.9528 14.4775L14.1956 13.5225C14.1994 13.5155 14.1977 13.5222 14.1809 13.5336C14.1644 13.5447 14.1378 13.557 14.101 13.5626L14.399 15.5403ZM18.75 13H15.0742V15H18.75V13ZM17.75 10V14H19.75V10H17.75ZM15.185 11H18.75V9H15.185V11ZM14.1856 9.96556C14.1856 9.9644 14.1856 9.96321 14.1857 9.96199L16.1842 10.038C16.1852 10.0139 16.1856 9.98978 16.1856 9.96556H14.1856ZM14.101 9.96851C14.1561 9.97681 14.1862 9.99979 14.1954 10.0093C14.1993 10.0134 14.1968 10.0122 14.193 10.0032C14.1888 9.99339 14.1856 9.97978 14.1856 9.96556H16.1856C16.1856 8.88385 15.3224 8.12997 14.399 7.99083L14.101 9.96851ZM13.25 6V8.97967H15.25V6H13.25Z" mask="url(#path-4-inside-1_91_26313)"/></g><g id="contents"><path id="background" fill="#E31D1C" fill-rule="evenodd" d="M21 2H39V26H21V2Z" clip-rule="evenodd"/><mask id="mask1_91_26313" width="18" height="24" x="21" y="2" maskUnits="userSpaceOnUse" style="mask-type:alpha"><path id="background_2" fill="white" fill-rule="evenodd" d="M21 2H39V26H21V2Z" clip-rule="evenodd"/></mask><g mask="url(#mask1_91_26313)"/></g></g></g></g></g><defs><filter id="filter0_dd_91_26313" width="42" height="30" x="0" y="0" color-interpolation-filters="sRGB" filterUnits="userSpaceOnUse"><feFlood flood-opacity="0" result="BackgroundImageFix"/><feColorMatrix in="SourceAlpha" result="hardAlpha" values="0 0 0 0 0 0 0 0 0 0 0 0 0 0 0 0 0 0 127 0"/><feOffset dy="1"/><feGaussianBlur stdDeviation="1"/><feColorMatrix values="0 0 0 0 0.0627451 0 0 0 0 0.0941176 0 0 0 0 0.156863 0 0 0 0.06 0"/><feBlend in2="BackgroundImageFix" result="effect1_dropShadow_91_26313"/><feColorMatrix in="SourceAlpha" result="hardAlpha" values="0 0 0 0 0 0 0 0 0 0 0 0 0 0 0 0 0 0 127 0"/><feOffset dy="1"/><feGaussianBlur stdDeviation="1.5"/><feColorMatrix values="0 0 0 0 0.0627451 0 0 0 0 0.0941176 0 0 0 0 0.156863 0 0 0 0.1 0"/><feBlend in2="effect1_dropShadow_91_26313" result="effect2_dropShadow_91_26313"/><feBlend in="SourceGraphic" in2="effect2_dropShadow_91_26313" result="shape"/></filter><clipPath id="clip0_91_26313"><rect width="36" height="24" x="3" y="2" fill="white" rx="2"/></clipPath></defs></svg>

<svg xmlns="http://www.w3.org/2000/svg" fill="none" aria-hidden="true" viewBox="0 0 42 30"><g filter="url(#a)"><g clip-path="url(#b)"><path fill="#F7FCFF" d="M3 2h36v24H3z"/><mask id="c" width="36" height="24" x="3" y="2" maskUnits="userSpaceOnUse" style="mask-type:alpha"><path fill="#fff" d="M3 2h36v24H3z"/></mask><g mask="url(#c)"><mask id="d" fill="#fff"><path fill-rule="evenodd" d="M14.25 6h-4.5v2.993c-.496.104-.864.5-.864.973V10H5.25v4h3.747c.145.267.42.469.753.539V18h4.5v-3.449a1.12 1.12 0 0 0 .824-.551h3.676v-4h-3.565v-.034c0-.495-.404-.906-.935-.986V6Z" clip-rule="evenodd"/></mask><path fill="#A0A0A0" fill-rule="evenodd" d="M14.25 6h-4.5v2.993c-.496.104-.864.5-.864.973V10H5.25v4h3.747c.145.267.42.469.753.539V18h4.5v-3.449a1.12 1.12 0 0 0 .824-.551h3.676v-4h-3.565v-.034c0-.495-.404-.906-.935-.986V6Z" clip-rule="evenodd"/><path fill="#FECA00" d="M9.75 6V5h-1v1h1Zm4.5 0h1V5h-1v1Zm-4.5 2.993.206.978.794-.167v-.811h-1ZM8.886 10v1h1.04l-.04-1.038-1 .038ZM5.25 10V9h-1v1h1Zm0 4h-1v1h1v-1Zm3.747 0 .879-.477L9.592 13h-.595v1Zm.753.539h1v-.812l-.794-.167-.206.979Zm0 3.461h-1v1h1v-1Zm4.5 0v1h1v-1h-1Zm0-3.449-.149-.988-.851.128v.86h1Zm.824-.551v-1h-.595l-.283.523.878.477Zm3.676 0v1h1v-1h-1Zm0-4h1V9h-1v1Zm-3.565 0-1-.038L14.147 11h1.039v-1Zm-.935-1.02h-1v.86l.851.129.149-.99ZM9.75 7h4.5V5h-4.5v2Zm1 1.993V6h-2v2.993h2Zm-.864.973a.1.1 0 0 1-.007.036c-.004.01-.007.011-.004.008a.156.156 0 0 1 .081-.039l-.412-1.957c-.869.183-1.658.92-1.658 1.952h2Zm0-.004a.09.09 0 0 1 0 .004h-2l.001.072 1.999-.076ZM5.25 11h3.636V9H5.25v2Zm1 3v-4h-2v4h2Zm2.747-1H5.25v2h3.747v-2Zm.96.56a.184.184 0 0 1-.07-.029c-.014-.01-.015-.015-.011-.008l-1.758.954a2.11 2.11 0 0 0 1.426 1.04l.412-1.957ZM10.75 18v-3.461h-2V18h2Zm3.5-1h-4.5v2h4.5v-2Zm-1-2.449V18h2v-3.449h-2Zm1.149.99a2.119 2.119 0 0 0 1.554-1.064l-1.757-.954c.003-.008.002 0-.015.01a.197.197 0 0 1-.08.03l.298 1.977ZM18.75 13h-3.676v2h3.676v-2Zm-1-3v4h2v-4h-2Zm-2.565 1h3.565V9h-3.565v2Zm-1-1.034v-.004l2 .076v-.072h-2Zm-.084.003a.17.17 0 0 1 .094.04c.004.004.002.003-.002-.006a.1.1 0 0 1-.007-.037h2c0-1.082-.864-1.836-1.787-1.975l-.298 1.978ZM13.25 6v2.98h2V6h-2Z" mask="url(#d)"/><path fill="#E31D1C" fill-rule="evenodd" d="M21 2h18v24H21V2Z" clip-rule="evenodd"/></g></g></g><defs><clipPath id="b"><rect width="36" height="24" x="3" y="2" fill="#fff" rx="2"/></clipPath><filter id="a" width="42" height="30" x="0" y="0" color-interpolation-filters="sRGB" filterUnits="userSpaceOnUse"><feFlood flood-opacity="0" result="BackgroundImageFix"/><feColorMatrix in="SourceAlpha" result="hardAlpha" values="0 0 0 0 0 0 0 0 0 0 0 0 0 0 0 0 0 0 127 0"/><feOffset dy="1"/><feGaussianBlur stdDeviation="1"/><feColorMatrix values="0 0 0 0 0.0627451 0 0 0 0 0.0941176 0 0 0 0 0.156863 0 0 0 0.06 0"/><feBlend in2="BackgroundImageFix" result="effect1_dropShadow_91_26313"/><feColorMatrix in="SourceAlpha" result="hardAlpha" values="0 0 0 0 0 0 0 0 0 0 0 0 0 0 0 0 0 0 127 0"/><feOffset dy="1"/><feGaussianBlur stdDeviation="1.5"/><feColorMatrix values="0 0 0 0 0.0627451 0 0 0 0 0.0941176 0 0 0 0 0.156863 0 0 0 0.1 0"/><feBlend in2="effect1_dropShadow_91_26313" result="effect2_dropShadow_91_26313"/><feBlend in="SourceGraphic" in2="effect2_dropShadow_91_26313" result="shape"/></filter></defs></svg>
